svg-color/telegram.edged.svg

<?xml version="1.0" encoding="UTF-8"?>
<svg id="svg4211" width="32" height="32" version="1.1" viewBox="0 0 32 32" xmlns="http://www.w3.org/2000/svg">
 <path id="path5116" d="m16 2.5a13.5 13.5 0 0 0 -13.5 13.5 13.5 13.5 0 0 0 13.5 13.5 13.5 13.5 0 0 0 13.5 -13.5 13.5 13.5 0 0 0 -13.5 -13.5zm7.584 5.916l-0.99023 2.1777-6.0938 13.406-1.0352 2.2773-0.82812-2.2773-1.7715-4.8652-4.8652-1.7715-2.2773-0.82812 2.2773-1.0352 13.406-6.0938 2.1777-0.99023z" fill="#1e96c8" stroke-width="0" style="paint-order:markers fill stroke"/>
</svg>

<svg width="32" height="32" viewBox="0 0 32 32" xmlns="http://www.w3.org/2000/svg">
    <path d="M16 2.5A13.5 13.5 0 0 0 2.5 16 13.5 13.5 0 0 0 16 29.5 13.5 13.5 0 0 0 29.5 16 13.5 13.5 0 0 0 16 2.5zm7.584 5.916l-.99 2.178L16.5 24l-1.035 2.277L14.637 24l-1.772-4.865L8 17.363l-2.277-.828L8 15.5l13.406-6.094 2.178-.99z" fill="#1e96c8" paint-order="markers fill stroke"/>
</svg>
